X: 27061
T: Miss Jane MacInnes-Dandeleith
R: reel
M: 4/4
K: Dmajor
|:D2 DF ABdf|D2 DF ED B,2|D2 DF ABdf|abaf d/d/d d2:|
gbaf efdA|G>fe>d B/B/B B2|gbfa efdA|B<d A>F D/D/D D2|
gbfa efdA|g>fe>d B/B/B B2|gefd ecdA|B<d A>F D/D/D D2||

